X: 31263
T: Paddy Gavin's
R: reel
M: 4/4
K: Dmajor
FG|:Ad d2 AGFA|DEFA dBAF|GE E2 efge|ceBc AGFG|
ABcA d2 AG|FADA dAFA|GBeg fAce|1 d2 ce d2 FG:|2 d2 ce d3 A||
defg a2 ^gb|afdf eAce|dcAG FADF|GEFD CA,CE|
DEFA G2 BG|A2 FA dAFA|1 GBeg fAce|d2 ce d3 A:|2 gfed cABc|d2 ce d4||

